icons/evolvere-flat-vivid-sunken-dark-fallback/places/64/folder-windows.svg

<svg xmlns="http://www.w3.org/2000/svg" viewBox="0 0 64 64"><path d="m3 6v58h57l4-4v-59l-1-1h-26l-5 5h-28z" fill="#da8c1f" color="#000"/><path d="m58 13v51h2l4-4v-59l-1-1v18z" fill="#8c3d00" fill-opacity=".333"/><path d="m7 13h51v31h-51z" fill="#e2e2e2"/><g color="#000"><path d="m30 13l4 4h2l-4-4z" fill="#3e4959" fill-opacity=".23"/><path d="m0 13v50l1 1h59l1-1v-45l-1-1h-26l-5-5h-28z" fill="#f4ae3f"/><path d="m30 27l-14 2v10h14v-12m-15 2.125l-10 1.438v8.438h10v-9.875m-10 10.875v8.625l10 1.375v-10h-10m11 0v10.156l14 1.938v-12.09h-14" fill="#b54f00" fill-opacity=".386"/></g></svg>

<?xml version="1.0" encoding="UTF-8" standalone="no"?>
<!-- Created with Inkscape (http://www.inkscape.org/) -->

<svg
   xmlns:dc="http://purl.org/dc/elements/1.1/"
   xmlns:cc="http://creativecommons.org/ns#"
   xmlns:rdf="http://www.w3.org/1999/02/22-rdf-syntax-ns#"
   xmlns:svg="http://www.w3.org/2000/svg"
   xmlns="http://www.w3.org/2000/svg"
   xmlns:sodipodi="http://sodipodi.sourceforge.net/DTD/sodipodi-0.dtd"
   xmlns:inkscape="http://www.inkscape.org/namespaces/inkscape"
   id="svg13094"
   height="64"
   width="64"
   version="1.1"
   inkscape:version="0.48.4 r9939"
   sodipodi:docname="folder-windows.svg"
   inkscape:export-filename="folder.png"
   inkscape:export-xdpi="90"
   inkscape:export-ydpi="90">
  <sodipodi:namedview
     pagecolor="#ffffff"
     bordercolor="#666666"
     borderopacity="1"
     objecttolerance="10"
     gridtolerance="10"
     guidetolerance="10"
     inkscape:pageopacity="0"
     inkscape:pageshadow="2"
     inkscape:window-width="1920"
     inkscape:window-height="1022"
     id="namedview46"
     showgrid="false"
     inkscape:snap-bbox="true"
     inkscape:bbox-paths="true"
     inkscape:bbox-nodes="true"
     inkscape:snap-bbox-edge-midpoints="true"
     inkscape:snap-bbox-midpoints="true"
     inkscape:snap-nodes="true"
     inkscape:object-paths="true"
     inkscape:snap-intersection-paths="true"
     inkscape:object-nodes="true"
     inkscape:snap-smooth-nodes="true"
     inkscape:snap-midpoints="true"
     inkscape:snap-object-midpoints="true"
     inkscape:snap-center="true"
     fit-margin-top="0"
     fit-margin-left="0"
     fit-margin-right="0"
     fit-margin-bottom="0"
     inkscape:zoom="11.313709"
     inkscape:cx="57.762097"
     inkscape:cy="31.283933"
     inkscape:window-x="-5"
     inkscape:window-y="23"
     inkscape:window-maximized="1"
     inkscape:current-layer="svg13094"
     showguides="true"
     inkscape:guide-bbox="true"
     inkscape:snap-page="true"
     inkscape:snap-global="true">
    <inkscape:grid
       type="xygrid"
       id="grid3023"
       empspacing="5"
       visible="true"
       enabled="true"
       snapvisiblegridlinesonly="true"
       originx="-80px"
       originy="-75px" />
  </sodipodi:namedview>
  <defs
     id="defs11" />
  <metadata
     id="metadata13099">
    <rdf:RDF>
      <cc:Work
         rdf:about="">
        <dc:format>image/svg+xml</dc:format>
        <dc:type
           rdf:resource="http://purl.org/dc/dcmitype/StillImage" />
        <dc:title />
      </cc:Work>
    </rdf:RDF>
  </metadata>
  <path
     style="color:#000000;fill:#da8c1f;fill-opacity:1;fill-rule:nonzero;stroke:none;marker:none;visibility:visible;display:inline;overflow:visible;enable-background:accumulate"
     d="m 3,6 -10e-8,58.000001 L 60,64 64,60 64,1 63,0 37,0 32,4.9999999 4,5 z"
     id="path3833-98"
     inkscape:connector-curvature="0"
     sodipodi:nodetypes="cccccccccc" />
  <path
     sodipodi:nodetypes="cccccccc"
     id="path3802-94"
     d="m 58,13 0,51 2,0 4,-4 0,-59 -1,-1 0,18 z"
     inkscape:connector-curvature="0"
     style="fill:#8c3d00;fill-opacity:0.33273704;stroke:none;stroke-width:1;marker:none" />
  <path
     sodipodi:nodetypes="ccccc"
     d="m 7,13 51,0 0,31 -51,0 z"
     id="path3920-52"
     inkscape:connector-curvature="0"
     style="fill:#e2e2e2;fill-opacity:1;fill-rule:nonzero" />
  <path
     style="color:#000000;fill:#3e4959;fill-opacity:0.22968199;fill-rule:nonzero;stroke-width:1;stroke-linecap:butt;stroke-linejoin:miter;stroke-miterlimit:4;stroke-opacity:1;stroke-dasharray:none;stroke-dashoffset:0;marker:none;visibility:visible;display:inline;overflow:visible;enable-background:accumulate"
     d="m 30,13 4,4 2,0 -4,-4 z"
     id="path3982-40"
     inkscape:connector-curvature="0"
     sodipodi:nodetypes="ccccc" />
  <path
     id="path3916-08"
     d="m 0,13 0,50 1,1 59,0 1,-1 0,-45 -1,-1 -26,1e-6 -5,-5 L 1,12 z"
     inkscape:connector-curvature="0"
     style="color:#000000;fill:#f4ae3f;fill-opacity:1;fill-rule:nonzero;stroke-width:1;stroke-linecap:butt;stroke-linejoin:miter;stroke-miterlimit:4;stroke-opacity:1;stroke-dasharray:none;stroke-dashoffset:0;marker:none;visibility:visible;display:inline;overflow:visible;enable-background:accumulate"
     sodipodi:nodetypes="ccccccccccc"
     inkscape:export-xdpi="90"
     inkscape:export-ydpi="90" />
  <path
     style="color:#000000;fill:#b54f00;fill-opacity:0.38628157000000002;fill-rule:nonzero;stroke:none;stroke-width:1;marker:none;visibility:visible;display:inline;overflow:visible;enable-background:accumulate"
     d="M 30 27 L 16 29 L 16 39 L 30 39 L 30 27 z M 15 29.125 L 5 30.5625 L 5 39 L 15 39 L 15 29.125 z M 5 40 L 5 48.625 L 15 50 L 15 40 L 5 40 z M 16 40 L 16 50.15625 L 30 52.09375 L 30 40 L 16 40 z "
     id="path3811" />
</svg>
